X: 64
T: No_156_Switchgrass_Dance_Song_(f).krn
N: Derived from No_156_Switchgrass_Dance_Song_(f).krn
%%abc-version 2.0
%%abcx-abcm2ps-target-version 5.9.1 (29 Sep 2008)
%%abc-creator hum2abc beta
%%abcx-conversion-date 2019/03/15 08:38:45
%%humdrum-veritas 2127222374
%%humdrum-veritas-data 514171221
%%linebreak <none>
%%barnumbers 0
L: 1/16
M: 2/4
K: Eb clef=bass
[K:clef=bass][M:2/4]z6B,B, ]|:  
B,8 | 
G,2B,B,B,4 | 
B,2A,2 G,2E,E, | 
E,4z4 ||  
[M:3/4]E,6C,C, E,3B,, ||  
[M:2/4]E,4z4 ||  
[M:3/4]E,6C,C, E,3C, | 
B,,4z4B,2B,2 :|]  
B,,4z8 |]  



